src/assets/icons/gift.svg

<svg xmlns="http://www.w3.org/2000/svg" viewBox="0 0 60 60" fill="currentcolor"><path d="M47 20H13c-2.8 0-5 2.2-5 5v24c0 2.8 2.2 5 5 5h34c2.8 0 5-2.2 5-5V25c0-2.8-2.2-5-5-5zm-13 2v30h-8V22h8zM10 49V25c0-1.7 1.3-3 3-3h11v30H13c-1.7 0-3-1.3-3-3zm40 0c0 1.7-1.3 3-3 3H36V22h11c1.7 0 3 1.3 3 3v24zm-1-20c0 .6-.4 1-1 1h-2c-.6 0-1-.4-1-1s.4-1 1-1h2c.6 0 1 .4 1 1zm-8 0c0 .6-.4 1-1 1h-2c-.6 0-1-.4-1-1s.4-1 1-1h2c.6 0 1 .4 1 1zm-26 0c0 .6-.4 1-1 1h-2c-.6 0-1-.4-1-1s.4-1 1-1h2c.6 0 1 .4 1 1zm4 0c0-.6.4-1 1-1h2c.6 0 1 .4 1 1s-.4 1-1 1h-2c-.6 0-1-.4-1-1zm22 8c0 .6-.4 1-1 1h-2c-.6 0-1-.4-1-1s.4-1 1-1h2c.6 0 1 .4 1 1zm-18 0c0 .6-.4 1-1 1h-2c-.6 0-1-.4-1-1s.4-1 1-1h2c.6 0 1 .4 1 1zm-8 0c0 .6-.4 1-1 1h-2c-.6 0-1-.4-1-1s.4-1 1-1h2c.6 0 1 .4 1 1zm34 0c0 .6-.4 1-1 1h-2c-.6 0-1-.4-1-1s.4-1 1-1h2c.6 0 1 .4 1 1zm-34 8c0 .6-.4 1-1 1h-2c-.6 0-1-.4-1-1s.4-1 1-1h2c.6 0 1 .4 1 1zm26 0c0 .6-.4 1-1 1h-2c-.6 0-1-.4-1-1s.4-1 1-1h2c.6 0 1 .4 1 1zm-18 0c0 .6-.4 1-1 1h-2c-.6 0-1-.4-1-1s.4-1 1-1h2c.6 0 1 .4 1 1zm26 0c0 .6-.4 1-1 1h-2c-.6 0-1-.4-1-1s.4-1 1-1h2c.6 0 1 .4 1 1zm-31 3v2c0 .6-.4 1-1 1s-1-.4-1-1v-2c0-.6.4-1 1-1s1 .4 1 1zm0-8v2c0 .6-.4 1-1 1s-1-.4-1-1v-2c0-.6.4-1 1-1s1 .4 1 1zm0-8v2c0 .6-.4 1-1 1s-1-.4-1-1v-2c0-.6.4-1 1-1s1 .4 1 1zm0-8v2c0 .6-.4 1-1 1s-1-.4-1-1v-2c0-.6.4-1 1-1s1 .4 1 1zm0 5c0 .6-.4 1-1 1s-1-.4-1-1 .4-1 1-1 1 .4 1 1zm0 8c0 .6-.4 1-1 1s-1-.4-1-1 .4-1 1-1 1 .4 1 1zm0 8c0 .6-.4 1-1 1s-1-.4-1-1 .4-1 1-1 1 .4 1 1zm26 3v2c0 .6-.4 1-1 1s-1-.4-1-1v-2c0-.6.4-1 1-1s1 .4 1 1zm0-8v2c0 .6-.4 1-1 1s-1-.4-1-1v-2c0-.6.4-1 1-1s1 .4 1 1zm0-8v2c0 .6-.4 1-1 1s-1-.4-1-1v-2c0-.6.4-1 1-1s1 .4 1 1zm0-8v2c0 .6-.4 1-1 1s-1-.4-1-1v-2c0-.6.4-1 1-1s1 .4 1 1zm0 5c0 .6-.4 1-1 1s-1-.4-1-1 .4-1 1-1 1 .4 1 1zm0 8c0 .6-.4 1-1 1s-1-.4-1-1 .4-1 1-1 1 .4 1 1zm0 8c0 .6-.4 1-1 1s-1-.4-1-1 .4-1 1-1 1 .4 1 1zM15.3 18.7c-.2-.2-2.3-2.4-2.3-4.7 0-2.6 2.5-4 5-4h.2c.3-1.5 1.2-3 3.8-3 1.1 0 2.2.5 3.1 1l-.1-.9c0-.3.1-.6.3-.8s.4-.3.7-.3h8c.3 0 .5.1.7.3s.3.5.3.8l-.1.9c.8-.5 1.9-1 3.1-1 2.6 0 3.5 1.6 3.8 3h.2c2.5 0 5 1.4 5 4 0 2.3-2.1 4.5-2.3 4.7-.3.3-1 .4-1.4 0-.4-.4-.4-1 0-1.4.5-.5 1.7-2 1.7-3.3 0-1.6-2-2-3-2 0 3.4-4 6.5-4.4 6.8-.6.4-1.2.1-1.4-.2-.3-.4-.2-1.1.2-1.4 1-.8 3.6-3.2 3.6-5.2 0-3-1.1-3-2-3-1.3 0-2.8 1.2-3.3 1.7l-.7 7.4c0 .5-.5 1-1.1.9-.5 0-1-.5-.9-1.1l.9-9.9h-5.8l.2 2H31c.6 0 1 .4 1 1s-.4 1-1 1h-3.5l.5 5.9c0 .5-.4 1-.9 1.1-.6 0-1-.4-1.1-.9l-.7-7.4c-.5-.5-2-1.7-3.3-1.7-.9 0-2 0-2 3 0 2 2.6 4.4 3.6 5.2.4.3.5 1 .2 1.4-.3.4-.9.6-1.4.2-.4-.3-4.4-3.4-4.4-6.8-1 0-3 .4-3 2 0 1.3 1.2 2.8 1.7 3.3.4.4.4 1 0 1.4-.5.5-1.2.3-1.4 0zM28 41V27c0-1.7 1.3-3 3-3 .6 0 1 .4 1 1s-.4 1-1 1-1 .4-1 1v14c0 .6-.4 1-1 1s-1-.4-1-1zm0 8c0-.6.4-1 1-1h2c.6 0 1 .4 1 1s-.4 1-1 1h-2c-.6 0-1-.4-1-1z"/><text y="75" fill="#000" font-size="5" font-weight="bold" font-family="'Helvetica Neue', Helvetica, Arial-Unicode, Arial, Sans-serif">Created by Denis Shumaylov</text><text y="80" fill="#000" font-size="5" font-weight="bold" font-family="'Helvetica Neue', Helvetica, Arial-Unicode, Arial, Sans-serif">from the Noun Project</text></svg>

<svg xmlns="http://www.w3.org/2000/svg" xmlns:xlink="http://www.w3.org/1999/xlink" version="1.1" viewBox="0 0 60 60" fill="currentcolor">
  <path d="M47,20H13c-2.8,0-5,2.2-5,5v24c0,2.8,2.2,5,5,5h34c2.8,0,5-2.2,5-5V25C52,22.2,49.8,20,47,20z M34,22v30h-8  V22H34z M10,49V25c0-1.7,1.3-3,3-3h11v30H13C11.3,52,10,50.7,10,49z M50,49c0,1.7-1.3,3-3,3H36V22h11c1.7,0,3,1.3,3,3V49z M49,29  c0,0.6-0.4,1-1,1h-2c-0.6,0-1-0.4-1-1s0.4-1,1-1h2C48.6,28,49,28.4,49,29z M41,29c0,0.6-0.4,1-1,1h-2c-0.6,0-1-0.4-1-1s0.4-1,1-1h2  C40.6,28,41,28.4,41,29z M15,29c0,0.6-0.4,1-1,1h-2c-0.6,0-1-0.4-1-1s0.4-1,1-1h2C14.6,28,15,28.4,15,29z M19,29c0-0.6,0.4-1,1-1h2  c0.6,0,1,0.4,1,1s-0.4,1-1,1h-2C19.4,30,19,29.6,19,29z M41,37c0,0.6-0.4,1-1,1h-2c-0.6,0-1-0.4-1-1s0.4-1,1-1h2  C40.6,36,41,36.4,41,37z M23,37c0,0.6-0.4,1-1,1h-2c-0.6,0-1-0.4-1-1s0.4-1,1-1h2C22.6,36,23,36.4,23,37z M15,37c0,0.6-0.4,1-1,1h-2  c-0.6,0-1-0.4-1-1s0.4-1,1-1h2C14.6,36,15,36.4,15,37z M49,37c0,0.6-0.4,1-1,1h-2c-0.6,0-1-0.4-1-1s0.4-1,1-1h2  C48.6,36,49,36.4,49,37z M15,45c0,0.6-0.4,1-1,1h-2c-0.6,0-1-0.4-1-1s0.4-1,1-1h2C14.6,44,15,44.4,15,45z M41,45c0,0.6-0.4,1-1,1h-2  c-0.6,0-1-0.4-1-1s0.4-1,1-1h2C40.6,44,41,44.4,41,45z M23,45c0,0.6-0.4,1-1,1h-2c-0.6,0-1-0.4-1-1s0.4-1,1-1h2  C22.6,44,23,44.4,23,45z M49,45c0,0.6-0.4,1-1,1h-2c-0.6,0-1-0.4-1-1s0.4-1,1-1h2C48.6,44,49,44.4,49,45z M18,48v2c0,0.6-0.4,1-1,1  s-1-0.4-1-1v-2c0-0.6,0.4-1,1-1S18,47.4,18,48z M18,40v2c0,0.6-0.4,1-1,1s-1-0.4-1-1v-2c0-0.6,0.4-1,1-1S18,39.4,18,40z M18,32v2  c0,0.6-0.4,1-1,1s-1-0.4-1-1v-2c0-0.6,0.4-1,1-1S18,31.4,18,32z M18,24v2c0,0.6-0.4,1-1,1s-1-0.4-1-1v-2c0-0.6,0.4-1,1-1  S18,23.4,18,24z M18,29c0,0.6-0.4,1-1,1s-1-0.4-1-1c0-0.6,0.4-1,1-1S18,28.4,18,29z M18,37c0,0.6-0.4,1-1,1s-1-0.4-1-1  c0-0.6,0.4-1,1-1S18,36.4,18,37z M18,45c0,0.6-0.4,1-1,1s-1-0.4-1-1c0-0.6,0.4-1,1-1S18,44.4,18,45z M44,48v2c0,0.6-0.4,1-1,1  s-1-0.4-1-1v-2c0-0.6,0.4-1,1-1S44,47.4,44,48z M44,40v2c0,0.6-0.4,1-1,1s-1-0.4-1-1v-2c0-0.6,0.4-1,1-1S44,39.4,44,40z M44,32v2  c0,0.6-0.4,1-1,1s-1-0.4-1-1v-2c0-0.6,0.4-1,1-1S44,31.4,44,32z M44,24v2c0,0.6-0.4,1-1,1s-1-0.4-1-1v-2c0-0.6,0.4-1,1-1  S44,23.4,44,24z M44,29c0,0.6-0.4,1-1,1s-1-0.4-1-1c0-0.6,0.4-1,1-1S44,28.4,44,29z M44,37c0,0.6-0.4,1-1,1s-1-0.4-1-1  c0-0.6,0.4-1,1-1S44,36.4,44,37z M44,45c0,0.6-0.4,1-1,1s-1-0.4-1-1c0-0.6,0.4-1,1-1S44,44.4,44,45z M15.3,18.7  C15.1,18.5,13,16.3,13,14c0-2.6,2.5-4,5-4c0.1,0,0.1,0,0.2,0c0.3-1.5,1.2-3,3.8-3c1.1,0,2.2,0.5,3.1,1L25,7.1c0-0.3,0.1-0.6,0.3-0.8  S25.7,6,26,6h8c0.3,0,0.5,0.1,0.7,0.3S35,6.8,35,7.1L34.9,8c0.8-0.5,1.9-1,3.1-1c2.6,0,3.5,1.6,3.8,3c0.1,0,0.1,0,0.2,0  c2.5,0,5,1.4,5,4c0,2.3-2.1,4.5-2.3,4.7c-0.3,0.3-1,0.4-1.4,0c-0.4-0.4-0.4-1,0-1.4c0.5-0.5,1.7-2,1.7-3.3c0-1.6-2-2-3-2  c0,3.4-4,6.5-4.4,6.8c-0.6,0.4-1.2,0.1-1.4-0.2c-0.3-0.4-0.2-1.1,0.2-1.4c1-0.8,3.6-3.2,3.6-5.2c0-3-1.1-3-2-3  c-1.3,0-2.8,1.2-3.3,1.7c0,0,0,0,0,0L34,18.1c0,0.5-0.5,1-1.1,0.9c-0.5,0-1-0.5-0.9-1.1L32.9,8h-5.8l0.2,2H31c0.6,0,1,0.4,1,1  s-0.4,1-1,1h-3.5l0.5,5.9c0,0.5-0.4,1-0.9,1.1c-0.6,0-1-0.4-1.1-0.9l-0.7-7.4c0,0,0,0,0,0C24.8,10.2,23.3,9,22,9c-0.9,0-2,0-2,3  c0,2,2.6,4.4,3.6,5.2c0.4,0.3,0.5,1,0.2,1.4c-0.3,0.4-0.9,0.6-1.4,0.2C22,18.5,18,15.4,18,12c-1,0-3,0.4-3,2c0,1.3,1.2,2.8,1.7,3.3  c0.4,0.4,0.4,1,0,1.4C16.2,19.2,15.5,19,15.3,18.7z M28,41V27c0-1.7,1.3-3,3-3c0.6,0,1,0.4,1,1s-0.4,1-1,1c-0.6,0-1,0.4-1,1v14  c0,0.6-0.4,1-1,1S28,41.6,28,41z M28,49c0-0.6,0.4-1,1-1h2c0.6,0,1,0.4,1,1s-0.4,1-1,1h-2C28.4,50,28,49.6,28,49z"/>
  <text x="0" y="75" fill="#000000" font-size="5px" font-weight="bold" font-family="'Helvetica Neue', Helvetica, Arial-Unicode, Arial, Sans-serif">
    Created by Denis Shumaylov
  </text>
  <text x="0" y="80" fill="#000000" font-size="5px" font-weight="bold" font-family="'Helvetica Neue', Helvetica, Arial-Unicode, Arial, Sans-serif">
    from the Noun Project
  </text>
</svg>
